!!!!SEGMENT: 048_2-1a-Sm-002.krn
!!!COM: Chopin, Fryderyk
!!!OTL: Nocturne No. 14
!!!OPS: Op. 48
!!!PTL: 13 et 14 Nocturne pour piano
!!!PPR: M. Schlesinger
!!!PPP: Paris
!!!NIFC-rismID: M/176
!!!NIFC-shelfmark: PL-Wmfc M/176
!!!OMD: Andantino.
**kern	**kern	**dynam
*part1	*part1	*part1
*staff2	*staff1	*
*clefF4	*clefG2	*
*k[f#c#g#]	*k[f#c#g#]	*
*f#:	*f#:	*
*M4/4	*M4/4	*
*met(c)	*met(c)	*
=1-	=1-	=1-
*	*^	*
[1CC#	2.ryy	4r	p
.	.	(>[2.c#/	<
.	4d 4F#<	.	.
=2	=2	=2	=2
1CC#]	4e# 4G#<	2c#]/	.
.	4f# 4A<	.	.
.	4a	[>4e#/ [<4c#/	[
.	8.g#L/	4e#]\ 4c#] 4B	.
.	16f#Jk)	.	.
*	*v	*v	*
=3	=3	=3
*ped	*	*
.	8qA/	]
!LO:TX:a:t=P:note-head-side tuplet number:problem	!	!
(>12FF#'L\	(>4f#	.
12C#	.	.
12AJ	.	.
4F#)	4ff#	.
*Xtuplet	*	*
(>12FF#L\	4ee	.
*Xped	*	*
12C#	.	.
12A#XJ	.	.
*tuplet	*	*
*ped	*	*
4F#)	8ddL	.
*Xped	*	*
.	8cc#J	.
=4	=4	=4
*ped	*	*
!LO:TX:a:t=P:note-head-side tuplet number:problem	!	!
(>12BBL	8eeL	.
12F#	.	.
.	8dd	.
12dJ	.	.
4G#)	8cc#	.
*Xped	*	*
.	8bJ	.
*ped	*	*
*Xtuplet	*	*
(>12C#L	8cc#L\	.
12E#X	.	.
.	8g#	.
12c#J	.	.
*tuplet	*	*
4B)	8a	.
*Xped	*	*
.	8qcc#/	.
.	8bJ	.
!!LO:LB:g=original
=5	=5	=5
*ped	*	*
!LO:TX:a:t=P:note-head-side tuplet number:problem	!	!
(>12FF#L\	8aL	.
12C#	.	.
.	8f#	.
12AJ	.	.
4F#)	8ff#	.
*Xped	*	*
.	8ee#XJ	.
*ped	*	*
!LO:TX:a:t=P:note-head-side tuplet number:problem	!	!
(>12AA#XL	4een	.
12E	.	.
12c#J	.	.
4F#)	8ddL	.
*Xped	*	*
.	8cc#J	.
=6	=6	=6
*ped	*	*
!LO:TX:a:t=P:note-head-side tuplet number:problem	!	!
(>12BBL	8eeL	.
12F#	.	.
.	8dd	.
12dJ	.	.
*Xped	*	*
4G#)	8cc#	.
.	8bJ	.
*ped	*	*
!LO:TX:a:t=P:note-head-side tuplet number:problem	!	!
(>12C#L	8cc#L	.
12E#X	.	.
.	8bJ	.
12c#J	.	.
!	!LO:TX:a:t=P:note-head-side tuplet number:problem	!
4B)	12bL\	.
*Xped	*	*
.	12a	.
.	12g#J)	.
=7	=7	=7
*^	*	*
*	*Xtuplet	*	*
!LO:N:vis=3	!	!	!
!LO:TX:a:t=P:note-head-side tuplet number:problem	!	!	!
(>12F#L\	12ryy	(>4f#	.
12A	6.A/	.	.
12dJ	.	.	.
4c#)\	.	8g#L	.
.	6ryy	.	.
.	.	8aJ	.
*Xtuplet	*	*	*
!LO:N:vis=3	!	!	!
(12FnL\	12ryy	[2b	.
12A	6.A/	.	.
12eJ	.	.	.
4d#X)\	.	.	.
.	6ryy	.	.
=8	=8	=8	=8
*tuplet	*	*	*
!LO:N:vis=3	!	!	!
!LO:TX:a:t=P:note-head-side tuplet number:problem	!	!	!
(>12EL\	12ryy	8bL]	.
12A	6.A/	.	.
.	.	8cc#	.
12f#J	.	.	.
4e)\	.	8dd	.
.	6ryy	.	.
.	.	8eeJ	.
*Xtuplet	*	*	*
!LO:N:vis=3	!	!	!
(>12EL\	12ryy	8gg#L	.
12G#	6.G#/	.	.
.	.	8ff#	.
12eJ	.	.	.
4d)\	.	8ee	.
*	*tuplet	*	*
.	6ryy	.	.
.	.	8ddJ	.
*v	*v	*	*
!!LO:LB:g=original
=9	=9	=9
*ped	*	*
!LO:TX:a:t=P:note-head-side tuplet number:problem	!	!
(>12AAL	4cc#	.
12E	.	.
12c#J	.	.
4A)	8b#XL	.
*Xped	*	*
.	8cc#J	.
*ped	*	*
*Xtuplet	*	*
(>12AAL	[2dd#X	.
12D#X	.	.
12c#J	.	.
*tuplet	*	*
*Xped	*	*
4F##X)	.	.
=10	=10	=10
*ped	*	*
!LO:TX:a:t=P:note-head-side tuplet number:problem	!	!
(>12GG#L	8dd#XL]	.
12D#X	.	.
.	8ee	.
12c#J	.	.
*Xped	*	*
4G#)	8ff#	.
.	8gg#J	.
*ped	*	*
*Xtuplet	*	*
(>12GG#L	8bbL	.
12D#	.	.
.	8aaJ	.
12B#XJ	.	.
*tuplet	*	*
!	!LO:TX:a:t=P:note-head-side tuplet number:problem	!
4G#)	12aaL	.
*Xped	*	*
.	12gg#	.
.	12ff#J	.
=11	=11	=11
*ped	*	*
!LO:TX:a:t=P:note-head-side tuplet number:problem	!	!
(12C#L	4gg#	.
12G#	.	.
12eJ	.	.
4c#)	8cc#L	.
*Xped	*	*
.	8ccc#J	.
*ped	*	*
*Xtuplet	*	*
(>12E#XL	4bb	.
12B	.	.
12g#J	.	.
*tuplet	*	*
4c#)	8aaL	.
*Xped	*	*
.	8gg#J	.
=12	=12	=12
*ped	*	*
!LO:TX:a:t=P:note-head-side tuplet number:problem	!	!
(>12F#L	8bbL	.
12c#	.	.
.	8aa	.
12aJ	.	.
4d#X)	8gg#	.
*Xped	*	*
.	8ff#J	.
*ped	*	*
!LO:TX:a:t=P:note-head-side tuplet number:problem	!	!
(>12G#L	8gg#L	.
12B#X	.	.
.	8dd#XJ	.
12g#J	.	.
!	!LO:TX:a:t=P:note-head-side tuplet number:problem	!
4f#)	12eeL	.
*Xped	*	*
.	12gg#	.
.	12ff#J	.
!!LO:LB:g=original
=13	=13	=13
*ped	*	*
*Xtuplet	*	*
(>12C#L	8eeL	.
12G#	.	.
.	8cc#	.
12eJ	.	.
4c#)	8ccc#	.
*Xped	*	*
.	8bb#XJ	.
*ped	*	*
*Xtuplet	*	*
(12E#XL	4bbn	.
12B	.	.
12g#J	.	.
4c#)	8aaL	.
*Xped	*	*
.	8gg#J	.
=14	=14	=14
*ped	*	*
(>12F#L	8bbL	.
12c#	.	.
.	8aa	.
12aJ	.	.
*Xped	*	*
4d#X)	8gg#	.
.	8ff#J	.
*ped	*	*
(>12G#L	8gg#L	.
12B#X	.	.
.	8ff#J	.
12g#J	.	.
!	!LO:TX:a:t=P:note-head-side tuplet number:problem	!
4f#)	12ff#L	.
*Xped	*	*
.	12ee	.
.	12dd#XJ	.
=15	=15	=15
*ped	*	*
(>12C#L	4cc#	.
12G#	.	.
12eJ	.	.
*Xped	*	*
4c#)	8dd#XL	.
.	8eeJ	.
*ped	*	*
(>12CnL	[2ff#	.
12F#	.	.
12eJ	.	.
*Xped	*	*
4A#X)	.	.
=16	=16	=16
*ped	*	*
(>12BBL	8ff#L]	.
12F#	.	.
.	8gg#	.
12eJ	.	.
4B)	8aa	.
*Xped	*	*
.	8bbJ	.
*ped	*	*
(>12BBL	8ddd#XL	.
12F#	.	.
.	8ccc#J	.
12d#XJ	.	.
!	!LO:TX:a:t=P:note-head-side tuplet number:problem	!
4A)	12ccc#L	.
*Xped	*	*
.	12bb	.
.	12aaJ	.
*tuplet	*	*
!!LO:PB:g=original
=17	=17	=17
*ped	*	*
!LO:TX:a:t=P:note-head-side tuplet number:problem	!	!
(>12EL	4gg#	.
12B	.	.
12g#J	.	.
4d#X)	8ff##XL	.
*Xped	*	*
.	8gg#J	.
*ped	*	*
!LO:TX:a:t=P:note-head-side tuplet number:problem	!	!
(>12EL	[2aa#X	.
12A#X	.	.
12g#J	.	.
*Xped	*	*
!	!LO:TX:t=cresc _:problem:dynamics with extention lines 	!
!	!	!LO:HP:t=cresc
4c##X)	.	<
=18	=18	=18
*ped	*	*
!LO:TX:a:t=P:note-head-side tuplet number:problem	!	!
(>12D#XL	8aa#L]	.
12A#	.	.
.	8bb	.
12g#J	.	.
4d#y)	8ccc#	.
*Xped	*	*
.	8ddd#XJ	.
*ped	*	*
*Xtuplet	*	*
(>12C#L	8fff#L	.
12A#	.	.
.	8eeeJ	.
12f##XJ	.	.
*tuplet	*	*
!	!LO:TX:a:t=P:note-head-side tuplet number:problem	!
4d#)	12eeeL	.
*Xped	*	*
.	12ddd#	.
.	12ccc#J	.
=19	=19	=19
*ped	*	*
!LO:TX:a:t=P:note-head-side tuplet number:problem	!	!
(>12BBL	8eeeL	.
12D#X	.	.
.	8ddd#X	.
12d#yJ	.	.
4G#)	8ccc#	.
*Xped	*	*
.	8bbJ	.
*ped	*	*
*Xtuplet	*	*
(>12C#L	8aa#XL	.
12G#	.	.
.	8gg#	.
12eJ	.	.
*tuplet	*	*
4A#X)	8ee	.
*Xped	*	*
.	8cc#J	[
!!LO:LB:g=original
=20	=20	=20
*ped	*	*
!LO:TX:a:t=P:note-head-side tuplet number:problem	!	!
(>12D#XL	2dd#X	f
12G#	.	.
12d#yJ	.	.
*Xped	*	*
4B)	.	.
*ped	*	*
*Xtuplet	*	*
(12EL	2g#	.
12G#	.	.
12eJ	.	.
*tuplet	*	*
*Xped	*	*
4B)	.	.
=21	=21	=21
*ped	*	*
!LO:TX:a:t=P:note-head-side tuplet number:problem	!	!
(>12GG#L	2b	.
12D#X	.	.
12BJ	.	.
*Xped	*	*
4G#)	.	.
*ped	*	*
*Xtuplet	*	*
(>12C#L	4e	.
12E	.	.
12BJ	.	.
*tuplet	*	*
4G#)	8d#XL	.
*Xped	*	*
.	8c#J	.
=22	=22	=22
*ped	*	*
!	!LO:TX:a:t=ten	!
!LO:TX:a:t=P:note-head-side tuplet number:problem	!	!
(>12DD#XL\	[1d#X	.
12AA#X	.	.
12G#J	.	.
*Xped	*	*
4D#X)	.	.
*ped	*	*
*Xtuplet	*	*
(>12DD#L\	.	.
12AA#	.	.
12F##XJ	.	.
*tuplet	*	*
4D#)	.	.
*Xped	*	*
.	.	.
=23	=23	=23
*ped	*	*
!LO:TX:a:t=P:note-head-side tuplet number:problem	!	!
(>12GG#L	4d#]	.
12D#X	.	.
12B#XJ	.	.
4G#)	4g#	.
!LO:TX:a:t=P:note-head-side tuplet number:problem	!	!
(>12GG#L	4f#	.
12D#	.	.
12B#J	.	.
4G#)	8eL	.
*Xped	*	*
.	8d#yJ	.
!!LO:LB:g=original
=24	=24	=24
*ped	*	*
!LO:TX:a:t=P:note-head-side tuplet number:problem	!	!
(>12GG#L	8f#L	.
12E	.	.
.	8e	.
12A#XJ	.	.
4G#)	8d#X	.
*Xped	*	*
.	8c#J	.
*ped	*	*
*Xtuplet	*	*
(>12GG#L\	8eL	.
12C#	.	.
.	8d#	.
12A#J	.	.
*tuplet	*	*
4G#)	8c#	.
*Xped	*	*
.	8eJ	.
=25	=25	=25
*ped	*	*
!LO:TX:a:t=P:note-head-side tuplet number:problem	!	!
(>12GG#L	4d#X)	.
12D#X	.	.
12B#XJ	.	.
*Xped	*	*
4G#)	(>4gg#	.
*ped	*	*
!	!LO:TX:t=dim _:problem:dynamics with extention lines 	!
!	!	!LO:HP:t=dim
!LO:TX:a:t=P:note-head-side tuplet number:problem	!	!
(>12GG#L	4ff#	>
12D#	.	.
12B#J	.	.
4G#)	8eeL	.
*Xped	*	*
.	8dd#yJ	.
=26	=26	=26
*ped	*	*
!LO:TX:a:t=P:note-head-side tuplet number:problem	!	!
(>12C#L	8ff#L	.
12G#	.	.
.	8ee	.
12eJ	.	.
4A#X)	8dd#X	.
*Xped	*	*
.	8cc#J	.
*ped	*	*
*Xtuplet	*	*
(>12D#XL	8dd#L	.
12F##X	.	.
.	8cc#J	.
12d#yJ	.	.
*tuplet	*	*
!	!LO:TX:a:t=P:note-head-side tuplet number:problem	!
4c#)	12cc#L	.
*Xped	*	*
.	12b#X	.
.	12a#XJ	.
!!LO:LB:g=original
=27	=27	=27
*ped	*	*
!LO:TX:a:t=P:note-head-side tuplet number:problem	!	!
(>12GG#L	[1g#	.
12D#X	.	.
12B#XJ	.	.
4G#)	.	.
*Xtuplet	*	*
(>12GG#L	.	.
12D#	.	.
12B#J	.	.
*tuplet	*	*
4G#)	.	.
=28	=28	=28
!LO:TX:a:t=P:note-head-side tuplet number:problem	!	!
(>12GG#L	2g#])	.
12D#X	.	.
12B#XJ	.	.
4G#)	.	.
!LO:TX:a:t=P:note-head-side tuplet number:problem	!	!
(>12GG#L	2r	.
12D#	.	.
12B#J	.	.
*Xped	*	*
4G#)	.	]]
=29	=29	=29
*	*^	*
*ped	*	*	*
!LO:TX:a:t=P:note-head-side tuplet number:problem	!	!	!
(12CC#L	2r	2ryy	.
>12GG#	.	.	.
12C#J	.	.	.
4G#)	.	.	.
2r	(>4c#	[2c#	<
.	4d 4F#<	.	.
=30	=30	=30	=30
1r	4e#X 4G#<	2c#]	.
.	4f# 4A<	.	.
.	.	.	[
.	4a	[>4e#/ &(<4c#	.
.	8.g#L	4e#] 4B&)	.
.	16f#Jk	.	.
*	*v	*v	*
!!LO:PB:g=original
=31	=31	=31
.	&(<8qA/	]
*ped	*	*
!LO:TX:a:t=P:note-head-side tuplet number:problem	!	!
(>12FF#L\	4f#&))	.
12C#	.	.
12AJ	.	.
*Xped	*	*
4F#)	(>4ff#	.
*ped	*	*
*Xtuplet	*	*
(>12FF#L\	4ee	.
12C#	.	.
12A#XJ	.	.
*tuplet	*	*
4F#)	8ddL	.
*Xped	*	*
.	8cc#J	.
=32	=32	=32
*ped	*	*
!LO:TX:a:t=P:note-head-side tuplet number:problem	!	!
(>12BBL	8eeL	.
12F#	.	.
.	8dd	.
12dJ	.	.
4G#)	8cc#	.
*Xped	*	*
.	8bJ	.
*ped	*	*
*Xtuplet	*	*
(12C#L	8cc#L\	.
12E#X	.	.
.	8g#	.
12c#J	.	.
*tuplet	*	*
4B)	8a	.
*Xped	*	*
.	&(8qcc#/	.
.	8bJ&)	.
=33	=33	=33
*ped	*	*
!LO:TX:a:t=P:note-head-side tuplet number:problem	!	!
(>12FF#L\	8aL	.
12C#	.	.
.	8f#	.
12AJ	.	.
4F#)	8ff#	.
*Xped	*	*
.	8ee#XJ	.
*ped	*	*
*Xtuplet	*	*
(>12AA#XL	4een	.
12E	.	.
12c#J	.	.
*tuplet	*	*
4F#)	8ddL	.
*Xped	*	*
.	8cc#J	.
=34	=34	=34
*ped	*	*
!LO:TX:a:t=P:note-head-side tuplet number:problem	!	!
(>12BBL	8eeL	.
12F#	.	.
.	8dd	.
12dJ	.	.
4G#)	8cc#	.
*Xped	*	*
.	8bJ	.
*ped	*	*
*Xtuplet	*	*
(>12C#L	8cc#L	.
12E#X	.	.
.	8bJ	.
12c#J	.	.
!	!LO:TX:a:t=P:note-head-side tuplet number:problem	!
4B)	12bL\	.
*Xped	*	*
.	12a	.
.	12g#J	.
!!LO:LB:g=original
=35	=35	=35
*^	*	*
*ped	*	*	*
!LO:N:vis=3	!	!	!
(>12F#L\	12ryy	4f#	.
12A	6.A/	.	.
12dJ	.	.	.
4c#)\	.	8g#L	.
*Xped	*	*	*
.	6ryy	.	.
.	.	8aJ	.
*ped	*	*	*
!LO:N:vis=3	!	!	!
(12FnL\	12ryy	[2b	.
12A	6.A/	.	.
12eJ	.	.	.
4d#X)\	.	.	.
*Xped	*	*	*
.	6ryy	.	.
*v	*v	*	*
=36	=36	=36
*ped	*	*
!LO:N:vis=3	!	!
(12EL	8bL]	.
12A	.	.
.	8cc#	.
12f#J	.	.
*Xped	*	*
4e)	8dd	.
.	8eeJ	.
*ped	*	*
!LO:N:vis=3	!	!
(12EL	8gg#L	.
12G#	.	.
.	8ff#J	.
12eJ	.	.
!	!LO:TX:a:t=P:note-head-side tuplet number:problem	!
4d)	12ff#L	.
*Xped	*	*
.	12ee	.
.	12ddJ	.
=37	=37	=37
*ped	*	*
(>12AAL	4cc#	.
12E	.	.
12c#J	.	.
4A)	8b#XL	.
*Xped	*	*
.	8cc#J	.
*ped	*	*
(>12AAL	[2dd#X	.
12D#X	.	.
12c#J	.	.
*Xped	*	*
4F##X)	.	.
=38	=38	=38
*ped	*	*
(>12GG#L	8dd#XL]	.
12D#X	.	.
.	8ee	.
12c#J	.	.
*Xped	*	*
4G#)	8ff#	.
.	8gg#J	.
*ped	*	*
(>12GG#L	8bbL	.
12D#	.	.
.	8aaJ	.
12B#XJ	.	.
!	!LO:TX:a:t=P:note-head-side tuplet number:problem	!
4G#)	12aaL	.
*Xped	*	*
.	12gg#	.
.	12ff#J	.
!!LO:LB:g=original
=39	=39	=39
*ped	*	*
(12C#L	4gg#	.
12G#	.	.
12eJ	.	.
*Xped	*	*
4c#)	8cc#L	.
.	8ccc#J	.
*ped	*	*
(>12E#XL	4bb	.
12B	.	.
12g#J	.	.
4c#)	8aaL	.
*Xped	*	*
.	8gg#J	.
=40	=40	=40
*ped	*	*
(>12F#L	8bbL	.
12c#	.	.
.	8aa	.
12aJ	.	.
4d#X)	8gg#	.
*Xped	*	*
.	8ff#J	.
*ped	*	*
(12G#L	8gg#L	.
12B#X	.	.
.	8dd#X	.
12g#J	.	.
!	!LO:TX:a:t=P:note-head-side tuplet number:problem	!
4f#)	(12ee	.
*Xped	*	*
.	12gg#	.
.	12ff#J)	.
=41	=41	=41
*ped	*	*
(>12C#L	8eeL	.
12G#	.	.
.	8cc#	.
12eJ	.	.
*Xped	*	*
.	8qcc#/L	.
.	8qdd/	.
.	8qcc#/	.
.	8qb#X/	.
.	8qcc#/	.
.	8qcc#/J	.
4c#)	8ccc#	.
.	8bb#XJ	.
*ped	*	*
(>12E#XL	4bbn	.
12B	.	.
12g#J	.	.
4c#)	8aaL	.
*Xped	*	*
.	8gg#J	.
=42	=42	=42
*ped	*	*
(>12F#L	8bbL	.
12c#	.	.
.	8aa	.
12aJ	.	.
*Xped	*	*
4d#X)	8gg#	.
.	8ff#J	.
*ped	*	*
(12G#L	8gg#L	.
12B#X	.	.
.	8ff#J	.
12g#J	.	.
!	!LO:TX:a:t=P:note-head-side tuplet number:problem	!
4f#)	12ff#L	.
*Xped	*	*
.	12ee	.
.	12dd#XJ	.
!!LO:LB:g=original
=43	=43	=43
*ped	*	*
(>12C#L	4cc#	.
12G#	.	.
12eJ	.	.
*Xped	*	*
4c#)	8dd#XL	.
!	!LO:TX:t=cresc _:problem:dynamics with extention lines 	!
!	!	!LO:HP:t=cresc
.	8eeJ	<
*ped	*	*
(>12CnL	[2ff# [2f#	.
12F#	.	.
12eJ	.	.
*Xped	*	*
4A#X)	.	.
=44	=44	=44
*ped	*	*
(>12BBL	8ff#L] 8f#]	.
12F#	.	.
.	8gg# 8g#	.
12eJ	.	.
4B)	8aa 8a	.
*Xped	*	*
.	8bbJ 8b	.
.	(>8qdd#X/	.
*ped	*	*
(>12BBL	8ddd#XL) 8dd#y	.
12F#	.	.
.	8ccc#J 8cc#	.
12d#XJ	.	.
!	!LO:TX:a:t=P:note-head-side tuplet number:problem	!
4A)	12ccc#L 12cc#	.
*Xped	*	*
.	12bb 12b	.
.	12aaJ 12a	.
=45	=45	=45
*ped	*	*
(>12EL	4gg# 4g#	.
12B	.	.
12g#J	.	.
4d#X)	8ff##XL 8f##X	.
*Xped	*	*
.	8gg#J 8g#	.
*ped	*	*
(>12EL	[2aa#X [2a#X	.
12A#X	.	.
12g#J	.	.
*Xped	*	*
4c##X)	.	.
=46	=46	=46
*ped	*	*
(12D#XL	8aa#XL] 8a#X]	.
12A#X	.	.
.	8bb 8b	.
12g#J	.	.
*Xped	*	*
4d#X)	8ccc# 8cc#	.
.	8ddd#XJ 8dd#X	.
*ped	*	*
(>12C#L	8fff#L 8ff#	.
12F##X	.	.
.	8eeeJ 8ee	.
12eJ	.	.
*tuplet	*	*
!	!LO:TX:a:t=P:note-head-side tuplet number:problem	!
4A#X)	12eeeL 12ee	.
*Xped	*	*
.	12ddd# 12dd#	.
.	12ccc#J 12cc#	[[
!!LO:PB:g=original
=47	=47	=47
*ped	*	*
!LO:TX:a:t=P:note-head-side tuplet number:problem	!	!
(>12BBL	8eeeL 8ee	f
12D#X	.	.
.	8ddd#X 8dd#X	.
12d#XJ	.	.
4G#)	8ccc# 8cc#	.
*Xped	*	*
.	8bbJ 8b	.
*ped	*	*
*Xtuplet	*	*
(>12C#L	8aa#XL 8a#X	.
12G#	.	.
.	8gg# 8g#	.
12eJ	.	.
4A#X)	8ee 8e	.
*Xped	*	*
.	8cc#J 8c#	.
=48	=48	=48
*ped	*	*
(>12DD#XL\	2dd#X 2d#X	.
12BB	.	.
12BJ	.	.
*Xped	*	*
4D#X)	.	.
*ped	*	*
(>12EEL\	2g# 2G#	.
12BB	.	.
12BJ	.	.
*Xped	*	*
4E)	.	.
=49	=49	=49
*ped	*	*
12GGG#L\	2b 2B	.
12DD#X	.	.
12D#XJ	.	.
*Xped	*	*
4GG#\	.	.
*ped	*	*
12CC#L\	4e 4E<	.
12GG#	.	.
12G#J	.	.
4AA#X\	8d#XL 8D#X<	.
*Xped	*	*
.	8c#J 8C#<	.
=50	=50	=50
*^	*	*
*ped	*	*	*
[4D#X	12DD#XL\	[1d#X	>
.	12AA#X	.	.
.	12G#J	.	.
*Xped	*	*	*
2.ryy	4D#]	.	.
*ped	*	*	*
.	(>12DD#L\	.	.
.	12AA#	.	.
.	12F##XJ	.	.
.	4D#)	.	.
*Xped	*	*	*
.	.	.	]
*v	*v	*	*
!!LO:LB:g=original
=51	=51	=51
*ped	*	*
(>12GG#L	4d#]	p
12D#X	.	.
12B#XJ	.	.
*Xped	*	*
4G#)	4g#	.
*ped	*	*
(>12GG#L	4f#	.
12D#	.	.
12B#J	.	.
4G#)	8eL	.
*Xped	*	*
.	8d#yJ	.
=52	=52	=52
*ped	*	*
(>12GG#L\	8f#L	.
12C#	.	.
.	8e	.
12A#XJ	.	.
4G#)	8d#X	.
.	8c#J	.
(>12GG#L	8eL	.
12E	.	.
.	8d#	.
12A#J	.	.
4G#)	8c#	.
*Xped	*	*
.	8eJ	.
=53	=53	=53
*ped	*	*
(>12GG#L	4d#X)	.
12D#X	.	.
12B#XJ	.	.
!	!LO:TX:t=dim _:problem:dynamics with extention lines 	!
!	!	!LO:HP:t=dim
4G#)	(>4gg#	>
(>12GG#L	4ff#	.
12D#	.	.
12B#J	.	.
4G#)	8eeL	.
*Xped	*	*
.	8dd#XJ	.
=54	=54	=54
*ped	*	*
(>12C#L	8ff#L	.
12G#	.	.
.	8ee	.
12eJ	.	.
4A#X)	8dd#X	.
*Xped	*	*
.	8cc#J	.
*ped	*	*
(>12D#XL	8dd#L	.
12F##X	.	.
.	8cc#J	.
12dJ	.	.
!	!LO:TX:a:t=P:note-head-side tuplet number:problem	!
4c#)	12cc#L	.
*Xped	*	*
.	12b#X	.
.	12a#XJ	]]
!!LO:LB:g=original
=55	=55	=55
*ped	*	*
!	!LO:TX:t=P:zakończenie łuku bez początku:problem	!
(>12GG#L	[<1g#	.
!	!LO:TX:a:t=ritenuto	!
12D#X	.	.
12B#XJ	.	.
4G#)	.	.
.	.	.
(>12GG#L	.	<
12D#	.	.
12B#J	.	.
4G#)	.	.
=56	=56	=56
*	*	*^
(>12GG#L	2g#]	.	.
12D#X	.	[>	.
12B#XJ	.	.	<
4G#)	.	.	.
(>12GG#L	2e)	.	.
12F#	.	.	.
12B#J	.	.	.
*tuplet	*	*	*
*Xped	*	*	*
4G#)	.	]	.
*	*	*v	*v
*kcancel	*kcancel	*
=57||	=57||	=57||
*k[fncngnb-e-a-d-g-]	*k[fncngnb-e-a-d-g-]	*
*M3/4	*M3/4	*
*	*	*
!	!LO:TX:B:a:t=Molto piu lento.	!
4D-\ 4AA- 4DD-	(>4f 4d- 4A-< 4F<	f<
4E-\ 4AA- 4EE-	4g-) 4c 4G-<	.
.	.	[
.	.	.
!	!	!LO:DY:b=2
4rEE	(>20Gn<LL/	p
.	20A-</	.
.	20C</	.
.	20G-X</	.
.	20c<JJ/	.
=58	=58	=58
2.rF	8.b-L	.
.	16b--Jk	.
.	2a-)\	.
!!LO:LB:g=original
=59	=59	=59
!	!LO:S:s=1:note:problem:note-level slur	!
!	!	!LO:DY:b:rj
4F\ 4D- 4FF	(>4a- 4d- 4A-<	f<
!	!LO:S:s=1:note:problem:note-level slur	!
4G-\ 4D- 4GG-	4b-) 4d- 4B-<	.
.	.	[
!	!	!LO:DY:rj
!	!	!LO:DY:b=2
4rEE	(>20G-<LL	p
.	20A<	.
.	20B-<	.
.	20d-	<
.	20g-JJ	.
=60	=60	=60
2.rF	8.ee-L	[
.	16dd-Jk	.
.	4b-	.
.	8.g-L\	>
.	16fJk)	.
.	.	]
=61	=61	=61
*ped	*	*
!	!LO:S:s=1:note:problem:note-level slur	!
4AA-\ 4AAA-	(>4e- 4c 4G-<	p
!	!LO:S:s=1:note:problem:note-level slur	!
4AA-\ 4AAA-	4f) 4c 4G-<	.
*Xped	*	*
.	.	.
*	*	*below:2
4rEE	(>20Gn<LL/	<
.	20A-</	.
.	20C</	.
.	20G-X</	.
.	20c<JJ/	.
.	.	[
=62	=62	=62
*^	*^	*
*ped	*	*	*	*
!LO:TX:b:t=P:crescendo nad 4DD-:problem	!	!	!	!
8.EnL	4DD-	8.b-L	2.d-	<
16FJk	.	16a-Jk	.	.
2A-/	2ryy	2f)	.	.
.	.	.	.	[
*Xped	*	*	*	*
.	.	.	.	.
*v	*v	*	*	*
*	*v	*v	*
=63	=63	=63
*ped	*	*
!	!LO:S:s=1:note:problem:note-level slur	!
4AA-\ 4AAA-	(>4e- 4c 4G-<	.
!	!LO:S:s=1:note:problem:note-level slur	!
4AA-\ 4AAA-	4f) 4c 4G-<	.
*Xped	*	*
*	*	*below:2
4rEE	(>20Gn<LL/	<
.	20A-</	.
.	20C</	.
.	20G-X</	.
!	!LO:TX:b:t=P:łuk kończy się za kreską taktową:problem	!
.	20c<JJ/)	.
.	.	[
!!LO:PB:g=original
=64	=64	=64
*^	*	*
*	*	*	*below
(4DD-	&(8.DD-L	(>8.g-<L 8.B--</	.
.	16AA-Jk	16f<Jk 16A-</	.
2ryy	4D-)\ 4DD-&)	4d-< [4F</	.
.	4C\ 4CC	4f</ 4e-< 4An< 4F<])	.
*v	*v	*	*
=65	=65	=65
4BB- 4BBB-	(>4dd- 4f 4d-	.
4D- 4DD-	4b- 4f 4B-	.
4E- 4EE-	4cc 4gn 4d-	.
=66	=66	=66
.	8qb-/	.
8.AA-L 8.AAA-	8.a-L 8.e- 8.cn	.
16E-Jk 16EE-	(<16gnJk 16e- 16B-	.
2E- 2AA-	2a- 2e- 2c)	.
=67	=67	=67
4AA- 4AAA-	4cc-X 4e- 4c-X	.
4C-X 4CC-X	4a- 4e- 4A-	.
4D- 4DD-	4b- 4f 4c-	.
=68	=68	=68
.	(8qa-/	<
8.GG-L 8.GGG-	8.g-L 8.d- 8.B-)	.
16D-Jk 16DD-	16fJk 16d- 16A-	.
4D- 4GG-	4g- 4d- 4B-	.
4D- 4DD-	4a- 4f 4d- 4A-	.
!!LO:LB:g=original
=69	=69	=69
4G- 4D- 4GG-	4b- 4g- 4d- 4B-	.
!	!LO:S:s=1:note:problem:note-level slur	!
4G-: 4EE-	4cc 4e- 4B-)	.
4An: 4FF	(>24AnLL	.
.	24e-	.
.	24g-X	.
.	24en	.
.	24f	.
.	24ccJJ)	.
.	.	[
=70	=70	=70
*^	*	*
(<8.AnL	2.BB-	8.ee-XL/ 8.g-	.
16B-Jk	.	(>16dd-Jk [>16f	.
!	!	!LO:TX:a:t=stretto _:dur=11q:ext=ud:problem:text with extention lines	!
!	!	!LO:TX:t=cresc _:problem:dynamics with extention lines 	!
!	!	!	!LO:HP:t=cresc
4d-)	.	4b-) 4f]	<
8.BnL\ 8.BBn	.	(>8.ffL/ 8.a- 8.f	.
16cJk [16C	.	16eenJk 16gn	.
=71	=71	=71	=71
4en>\	4C\]	4cc 4e)	.
(<8.BnL	2C	8.ffL/ 8.a- 8.f	.
16cJk	.	N(>16eenJk [>16gn	.
4e>/)	.	4cc 4g]	.
*v	*v	*	*
=72	=72	=72
*ped	*	*
!	!LO:TX:b:t=P:akcent długi skierowany w drugą stronę:problem	!
2A- 2C	4..ee-X^<\ 4..g-X 4..e-X	.
.	16a- 16A-	.
4C 4CC	4a- 4g- 4e- 4A-N)	.
*Xped	*	*
.	.	.
=73	=73	=73
*	*	*^
4D-\ 4AA- 4DD-	(>4f 4d- 4F<	<	.
4E-\ 4AA- 4EE-	4g-) 4c 4G-<	.	.
.	.	[	.
4rEE	(>20Gn<^>LL/	p	.
*	*	*below:2	*
.	20A-</	<	.
.	20C</	.	.
.	20G-X</	.	.
.	20c<JJ/	.	.
.	.	[	.
*	*	*v	*v
!!LO:LB:g=original
=74	=74	=74
*	*	*below
2.rF	8.b-L	.
.	16b--Jk	.
.	2a-)\	.
*ped	*	*
=75	=75	=75
!	!LO:TX:a:t=LO:TX:a:t=poco\ ritenuto in\ tempo _:dur=9q:ext=ud:problem:text with extention lines	!
!	!LO:S:s=1:note:problem:note-level slur	!
4En\ 4BBn 4EEn	(>4g#X 4en 4G#X<	.
*Xped	*	*
.	.	.
*ped	*	*
!	!LO:S:s=1:note:problem:note-level slur	!
4F#X\ 4BB 4FF#X	4an 4d#X 4An<)	.
*Xped	*	*
4rEE	(>20A#X<LL/	.
.	20Bn<	.
.	20D#X<	<
.	20An<	.
.	20d#X<JJ	.
=76	=76	=76
.	8qd#X/	.
2.rF	8.cc#XL	[
.	16bnJk	.
.	8a#X\	>
.	4an\	.
.	8g-X)\	]
*ped	*	*
=77	=77	=77
4AA-\ 4AAA-	[4a-X 4e- 4c 4G-<	.
4AA-\ 4AAA-	4a-] 4f 4c 4G-<	.
*Xped	*	*
4ryy	(>20Gn<LL/	.
.	20A-<	.
.	20C<	.
.	20G-X<	.
.	20c<JJ	.
*ped	*	*
=78	=78	=78
*^	*^	*
8.EnL	4DD-	8.b-L	2.d-	.
(<16FJk	.	16a-Jk	.	.
2A-)/	2ryy	2f	.	.
*ped	*	*	*	*
*v	*v	*	*	*
*	*v	*v	*
!!LO:LB:g=original
=79	=79	=79
4AA-\ 4AAA-	4e- 4c 4G-<	.
4AA-\ 4AAA-	4f 4c 4G-<)	.
*Xped	*	*
4rEE	(<20Gn<LL/	>
.	20A-</	.
.	20C</	.
.	20G-X</	.
.	20c<JJ)/	.
.	.	]
=80	=80	=80
*	*	*below:2
!	!LO:TX:b:t=P:diminuendo pomiędzy głosami:problem	!
(8.DD-L\	(>8.g-<L/ 8.B--<	>
16AA-Jk	16f<Jk 16A-<	]
*	*	*below
4D-)\ 4DD-]	4d-< [4F<)/	.
4C\ 4CC	(>4f/ 4e-/ 4An</ 4F<]/	.
=81	=81	=81
4BB- 4BBB-	4dd- 4f 4d-	.
4D- 4DD-	4b- 4f 4B-	.
4E- 4EE-	4cc 4gn 4d-	.
=82	=82	=82
.	(8qb-/	.
8.AA-L 8.AAA-	8.a-L 8.e- 8.cn)	.
16E-Jk 16EE-	16gnJk 16e- 16B-	.
4E- 4AA-	2a- 2e- 2c	.
*tuplet	*	*
(<20EE-LL	.	.
20FF	.	.
20EE-	.	.
20BBB-	.	.
20AAA-JJ	.	.
=83	=83	=83
4AA- 4AAA-)	4cc-X 4e- 4c-X	.
4C-X 4CC-X	4a- 4e- 4A-	.
4D- 4DD-	4b- 4f 4c-	.
!!LO:PB:g=original
=84	=84	=84
.	(8qa-/	.
8.GG-L 8.GGG-	8.g-L 8.d- 8.B-)	.
16D-Jk 16DD-	16fJk 16d- 16A-	.
4D- 4GG-	4g- 4d- 4B-	.
4D- 4DD-	4a- 4f 4d- 4A-	.
=85	=85	=85
4G- 4D- 4GG-	4b- 4g- 4d- 4B-	<
4G-: 4EE-	4cc 4e- 4B-)	.
*ped	*	*
*	*Xtuplet	*
4An: 4FF	(>24AnLL	.
.	24e-	.
.	24g-	.
.	24en	.
*	*tuplet	*
*Xped	*	*
.	24f	.
.	[>24ccJJ	[
=86	=86	=86
*^	*	*
(<8.AnL	2BB-	8.ee-L/ 8.cc] 8.g-	.
16B-Jk	.	16dd-Jk [>16f	.
4d-)	.	4b- 4f])	.
!	!	!LO:TX:t=cres _:problem:dynamics with extention lines 	!
!	!	!	!LO:HP:t=cres
4ryy	8.BnL 8.BBn	(>8.ffL/ 8.a- 8.f	<
.	16cJk [>16C	16eenJk [>16gn	.
=87	=87	=87	=87
4en>\	4C\]	4cc 4gnX])	.
8.BnL	2C	(>8.ffL/ 8.a- 8.f	.
16cJk	.	16eenJk [>16gn	[
4ryy	.	4cc/ 4g/ 4e/]	<
*v	*v	*	*
*ped	*	*
=88	=88	=88
*	*^	*
2A- 2C	4..ee-X 4..g-X 4..e-X	2ryy	.
.	.	.	[
.	16a- 16A-	.	.
4C 4CC	4a-	4g- 4e- 4A-	.
*Xped	*	*	*
.	.	.	.
*	*v	*v	*
!!LO:LB:g=original
=89	=89	=89
4D-\ 4AA- 4DD-	4f 4d- 4F<	.
4E-\ 4AA- 4EE-	4g- 4c 4G-<)	.
*	*	*below:2
!	!	!LO:DY:rj
4rEE	(>20Gn<LL/	p
.	20A-<	.
.	20C<	.
.	20G-X<	<
.	20c<JJ	.
*	*	*below
=90	=90	=90
2.rF	8.b-L	.
.	16b--Jk	[
.	2a-)\	.
=91	=91	=91
!	!LO:TX:a:t=ritenuto _:dur=6q:ext=ud:problem:text with extention lines	!
!	!LO:S:s=1:note:problem:note-level slur	!
4E\ 4BBn 4EEn	(>4g#X 4en 4G#X<	.
!	!LO:S:s=1:note:problem:note-level slur	!
4F#X\ 4BBn 4FF#X	4an) 4d#X 4An<	.
*	*Xtuplet	*
4rEE	(>20A#X<LL	.
.	20Bn<	.
.	20D#X<	.
.	20An<	.
.	20d#JJ	.
*	*tuplet	*
=92	=92	=92
2.rF	8.cc#XL	.
.	16bnJk	.
.	8a#X	.
.	4an	.
.	8g-X	.
!!LO:LB:g=original
=93	=93	=93
!	!LO:TX:a:t=in tempo.	!
*ped	*	*
4AA-\ 4AAA-	4a- 4e- 4c 4G-<	.
!	!LO:S:s=1:note:problem:note-level slur	!
4AA-\ 4AAA-	4a- 4f 4c 4G-<)	.
4rEE	(>20Gn<LL/	.
.	20A-<	.
.	20C<	.
.	20G-X<	.
*Xped	*	*
.	20c<JJ	.
=94	=94	=94
*^	*^	*
*ped	*	*	*	*
8.En:L	4.DD-:	8.b-L	4d-	<
16FJk	.	16a-Jk	.	.
!	!	!	!LO:TX:t=cres _:problem:dynamics with extention lines 	!
!	!	!	!	!LO:HP:t=cres
2A-	.	2f)	2f 2c	[<
*Xped	*	*	*	*
.	4.ryy	.	.	.
*v	*v	*	*	*
*	*v	*v	*
=95	=95	=95
!	!LO:S:s=1:note:problem:note-level slur	!
4C 4CC	(>4cc 4gn 4en 4B-	.
!	!LO:S:s=1:note:problem:note-level slur	!
4C 4CC	4cc 4a- 4e 4B-)	.
!	!LO:TX:a:t=stretto _:dur=4q:ext=ud:problem:text with extention lines	!
4r	(<24BnLL	.
.	24c	.
.	24d#X	.
.	24en	.
.	24g	.
.	24b-XJJ	.
=96	=96	=96
(>8qFF/	.	.
*ped	*	*
8.GnL)	8.dd-L 8.en	.
16A-Jk	16ccJk [16f)	.
*Xped	*	*
8c	8a- 8f]	.
16.GLL	(>16.dd-LL 16.e	.
32A-JJk	32ccJJk [32f	.
4c	4a- 4f])	[[
!!LO:LB:g=original
=97	=97	=97
*	*^	*
*ped	*	*	*
4A- 4AA-	4aa- 4ee- 4cc 4g-	2ryy	ff
4A- 4AA-	4aa- 4ff 4cc 4g-	.	.
*Xped	*	*	*
4r	(>20gnLL	20ryy	.
.	20a-	20ryy	.
*	*Xtuplet	*Xtuplet	*
!	!	!LO:N:vis=5	!
.	20c	20c\	.
.	20g-X	20ryy	.
.	20ccJJ	20ryy	.
*	*	*tuplet	*
=98	=98	=98	=98
.	.	8qD-</	.
4ryy	8.bb-L 8.dd-	(>8.enL	.
.	16aa-Jk	16fJk	.
*	*Xtuplet	*	*
4rEE	26ffLL	4a-)	.
.	26dd-	.	.
.	26a-	.	.
.	26f	.	.
.	26d-	.	.
.	26A-<	.	.
.	26F<	.	.
4rEE	.	4ryy	.
.	26D-<	.	.
.	26BB-<	.	.
.	26AA-<	.	.
.	26FF<	.	.
.	26DD-<)	.	.
.	26BBB-<JJ	.	.
*	*tuplet	*	*
*	*v	*v	*
=99	=99	=99
*^	*	*
4ryy	4AAA-\	(>4e- 4c 4G-<	.
2c 2G-	2AA- 2AAA-	4..f	.
.	.	16g-	.
=100	=100	=100	=100
*	*	*	*^
2.c#X 2.F#X	2.AAn 2.AAAn	4f#X	>	>
.	.	4..f#	.	.
.	.	16f#)	]	.
*v	*v	*	*v	*v
!!LO:PB:g=original
=101||	=101||	=101||
*k[f#c#g#]	*k[f#c#g#]	*
*M4/4	*M4/4	*
*met(c)	*met(c)	*
*ped	*	*
8qAAA#X/	(>8qF#</	.
!LO:TX:a:t=P:note-head-side tuplet number:problem	!	!
(>12AA#XL	(>4f#) 4c# 4F#<	.
12E	.	.
12c#J	.	.
4F#)	4ff#	.
*Xtuplet	*	*
(>12AA#L	4ee	.
12E	.	.
12c#J	.	.
4F#)	8ddL	.
*Xped	*	*
.	8cc#J	.
=102	=102	=102
*ped	*	*
(>12BBL	8eeL	.
12F#	.	.
.	8dd	.
12dJ	.	.
4G#)	8cc#	.
*Xped	*	*
.	8bJ	.
*ped	*	*
(>12C#L	8cc#L\	.
12E#X	.	.
.	8g#	.
12c#J	.	.
4B)	8a	.
*Xped	*	*
.	8qcc#/	.
.	8bJ	.
=103	=103	=103
*ped	*	*
(>12FF#L\	8aL	.
12C#	.	.
.	8f#	.
12AJ	.	.
.	8qf#/L	.
.	8qg#/	.
.	8qf#/	.
.	8qe#X/	.
.	8qf#/	.
.	8qf#/J	.
4F#)	8ff#	.
*Xped	*	*
.	8ee#XJ	.
*ped	*	*
(>12AA#XL	4een	.
12E	.	.
12c#J	.	.
4F#)	8ddL	.
*Xped	*	*
.	8cc#J	.
!!LO:LB:g=original
=104	=104	=104
*ped	*	*
(>12BBL	8eeL	.
12F#	.	.
.	8dd	.
12dJ	.	.
!	!LO:TX:a:t=P:note-head-side tuplet number:problem	!
4G#)	12dd	.
*Xped	*	*
.	12cc#	.
.	12bJ	.
*ped	*	*
(>12C#L	8cc#L\	.
12E#X	.	.
.	8g#	.
12c#J	.	.
!	!LO:TX:a:t=P:note-head-side tuplet number:problem	!
4B)	12a	.
*Xped	*	*
.	12cc#	.
.	12bJ	.
=105	=105	=105
*ped	*	*
(>12FF#L\	4a	.
12C#	.	.
12AJ	.	.
4F#)	8g#L	.
*Xped	*	*
.	8aJ	.
*ped	*	*
(>12EL	[<2a#X^>	.
12A#X	.	.
12f##XJ	.	.
4c#)	.	.
=106	=106	=106
*ped	*	*
(>12C#L	8a#XL]/	<
12F##X	.	.
.	8b	.
12eJ	.	.
4A#X)	8cc#	.
*Xped	*	*
.	8ddJ	.
*ped	*	*
(>12AA#XL	8eeL	.
12E	.	.
.	8ff#	.
12c#J	.	.
4Gn)	8ggn	.
*Xped	*	*
.	8a#J	[
=107	=107	=107
*ped	*	*
(12D#XL	4b	.
12F#	.	.
12f#J	.	.
!	!	!LO:HP:a
4B)	8a#XL\	<
*Xped	*	*
.	8bJ	.
*ped	*	*
(>12F#L	[2b#X	[
12B#X	.	.
12anyJ	.	.
4d#X)	.	.
*Xped	*	*
.	.	.
!!LO:LB:g=original
=108	=108	=108
*ped	*	*
(>12D#XL	8b#XL]	<
12A	.	.
.	8cc#	.
12f#J	.	.
4B#X)	8dd#X	.
*Xped	*	*
.	8ee#XJ	.
*ped	*	*
(>12BB#XL	8ff#L	.
12F#	.	.
.	8gg#	.
12d#XJ	.	.
4A)	8aa	[
*Xped	*	*
.	8f#J	.
=109	=109	=109
*ped	*	*
(>12BBL	8e#XL)\	.
12D	.	.
.	16r	.
12dnJ	.	.
.	(>16ee#XJk	.
*Xped	*	*
4G#)	4ee#t	.
.	16qdd#/L	.
.	16qee#/J	.
*ped	*	*
(>12AAL	8gg#L	.
12C#	.	.
.	8ff#	.
12c#J	.	.
!	!LO:TX:a:t=P:note-head-side tuplet number:problem	!
4F#)	12ff#	.
*Xped	*	*
.	12ee#	.
.	12ddnJ	.
=110	=110	=110
*ped	*	*
(>12EE#XL\	8b#XL	.
12C#	.	.
.	8cc#	.
12BnJ	.	.
.	8qee/	.
4G#)	8dd	.
*Xped	*	*
.	8cc#J	.
*ped	*	*
(>12EE#L\	8c#L	.
12C#	.	.
.	8g#	.
12BJ	.	.
4G#)	8a	.
*Xped	*	*
.	8bnJ	.
=111	=111	=111
*ped	*	*
(>12FF#L\	8aL	.
12C#	.	.
.	8f#	.
12AJ	.	.
4F#)	8g#	.
*Xped	*	*
.	8aJ	.
*ped	*	*
(>12BBL	[2d^>	.
12D	.	.
12AJ	.	.
*Xped	*	*
4F#)	.	.
!!LO:LB:g=original
=112	=112	=112
*	*^	*
*ped	*	*	*
*	*	*Xtuplet	*
!!mixed beam:problem
(>12C#L	8aL	12dL]\	.
12F#	.	12ryy	.
.	8f#	.	.
12c#J	.	12c#<J/	.
*	*	*tuplet	*
4A)	8g#	2.ryy	.
*Xped	*	*	*
.	8aJ	.	.
*ped	*	*	*
(>12DL	2B^>)	.	.
12F#	.	.	.
12f#J	.	.	.
4G#)	.	.	.
*Xped	*	*	*
.	.	.	.
*	*v	*v	*
=113	=113	=113
1rF	(>2fff#	>
.	8eeeL	.
.	8ddd	.
.	8ccc#	.
.	8bbJ	.
=114	=114	=114
1rF	8gg#L	.
.	8ff#	.
.	8dd	.
.	8cc#J	.
.	8a#XL	.
.	8b	.
.	8cc#	.
.	8qee/	.
*ped	*	*
.	8ddJ	]
=115	=115	=115
!!mixed beam:problem
(>/12CC#L	4c#)	.
12F#\	.	.
12f#\J	.	.
4A)	4r	.
(>12C#L	(>2cc#	pp
12F#	.	.
12f#J	.	.
4A)	.	.
*Xped	*	*
.	.	.
!!LO:LB:g=original
=116	=116	=116
(>12C#L	8ddL	.
12F#	.	.
.	8cc#	.
12c#J	.	.
4A)	8b	.
.	8aJ	.
(>12C#L	8g#L	.
12F#	.	.
.	8f#	.
12c#J	.	.
4A)	8b	.
.	8aJ	.
=117	=117	=117
*ped	*	*
.	16qf#/LL	.
.	16qg#/JJ	.
(>12C#L	1g#tt	.
12F#	.	.
12c#J	.	.
4G#)	.	.
(>12C#L	.	.
12F#	.	.
12c#J	.	.
*Xped	*	*
4G#)	.	.
=118	=118	=118
*ped	*	*
(>12C#L	1g#ttt	.
12E#X	.	.
12c#J	.	.
4G#)	.	.
(>12C#L	.	.
12E#	.	.
12c#J	.	.
*Xped	*	*
4G#)	.	.
.	16qf##X/LL	.
.	16qg#/JJ	.
=119	=119	=119
*ped	*	*
(>12C#L	2cc#	.
12En	.	.
12eJ	.	.
*Xped	*	*
4G#)	.	.
*ped	*	*
(>12GG#L	2b#X	.
12D#X	.	.
12d#yJ	.	.
*Xped	*	*
4G#)	.	.
!!LO:PB:g=original
=120	=120	=120
*ped	*	*
(>12BBL	2bn	.
12D#X	.	.
12d#yJ	.	.
*Xped	*	*
4F#)	.	.
*ped	*	*
(>12FF#L	2a#X	.
12C#	.	.
12c#J	.	.
*Xped	*	*
4F#)	.	.
=121	=121	=121
*ped	*	*
(>12FF#L\	2an	.
12BB#X	.	.
12AJ	.	.
*Xped	*	*
4D#X)	.	.
*ped	*	*
(>12FFnL\	[2a	>
12BB#	.	.
12AJ	.	.
*Xped	*	*
4D#)	.	.
.	.	]]
=122	=122	=122
*ped	*	*
(>12EEL\	4.a]	.
12C#	.	.
12AJ	.	.
*Xped	*	*
4E)	.	.
.	8g#	.
*ped	*	*
.	16qg#/L	.
.	16qb/J	.
(>12EE#XL\	4a	.
12BB	.	.
12G#J	.	.
*Xped	*	*
4C#)\	4g#)	.
=123	=123	=123
*ped	*	*
.	(>&(8qc#/L	.
.	8qqcc# 8qf#	.
.	8qcc#J&)	.
!	!LO:TX:t=cres _:problem:dynamics with extention lines 	!
!	!	!LO:HP:t=cres
(>12AAL	2ccc# 2ff# 2cc#	<
12C#	.	.
12c#J	.	.
*Xped	*	*
4F#)	.	.
*ped	*	*
(>12GG#L	2bb#X 2gg# 2b#X	.
12D#X	.	.
12d#yJ	.	.
*Xped	*	*
4G#)	.	.
!!LO:LB:g=original
=124	=124	=124
*ped	*	*
(>12GGnL	2bbn 2ee#X 2bn	.
12E#X	.	.
12e#XJ	.	.
*Xped	*	*
4c#)	.	.
*ped	*	*
(>12FF#L	2aa#X 2ff# 2a#X	.
12F#	.	.
12f#J	.	.
*Xped	*	*
4c#)	.	.
=125	=125	=125
*ped	*	*
(>12D#XL 12DD#X	2aan 2b 2an	.
12F#	.	.
12f#J	.	[
*Xped	*	*
4B)	.	>
*ped	*	*
(>12DnL 12DDn	[2aa 2b#X [2a	.
12F#	.	.
12f#J	.	.
*Xped	*	*
4B#X)	.	.
=126	=126	=126
*	*^	*
*ped	*	*	*
(12C#L 12CC#	4.aa] 4.a]	2cc#	.
12F#	.	.	.
12f#J	.	.	.
4c#)	.	.	]
*Xped	*	*	*
.	8gg# 8g#	.	.
*ped	*	*	*
.	.	8qb/L	.
.	.	8qb/	.
.	.	[>8qcc#/	<
.	.	8qbb/J	.
!!mixed beam:problem
(12CC#/L 12CCC#/	4.aa\ 4.a	2cc#]	.
12C#\	.	.	.
12B\J	.	.	.
*Xped	*	*	*
4E#X)	.	.	.
*ped	*	*	*
.	8gg#\ 8g#	.	[
=127	=127	=127	=127
*	*	*	*^
!!mixed beam:problem
(12FF#/L 12FFF#/	2cc#\	4gg# 4g#	.	.
12C#\	.	.	>	.
12A\J	.	.	.	.
*Xped	*	*	*	*
!	!	!LO:TX:t=P:brak początku dolnej ligatury:problem	!	!
4F#)	.	[>2.ff# [2.f#	.	.
*ped	*	*	*	*
(>12FF#L\	4ee\	.	.	p
12C#	.	.	.	.
12A#XJ	.	.	.	.
*Xped	*	*	*	*
4F#)	8ddL\	.	.	.
.	8cc#J	.	]	.
*	*	*	*v	*v
!!LO:LB:g=original
=128	=128	=128	=128
*ped	*	*	*
!	!	!LO:TX:b:t=P:1ff# 1f# między grupami ósemek:problem	!
(>12FF#L	8eeL\	1ff#_> 1f#_	]
12D	.	.	.
.	8dd	.	.
12BJ	.	.	.
*Xped	*	*	*
4F#)	8cc#	.	.
.	8bJ	.	.
*ped	*	*	*
(>12FF#L\	8ddL\	.	.
12BB	.	.	.
.	8cc#	.	.
12G#J	.	.	.
*Xped	*	*	*
4F#)	8b	.	.
.	8ddJ	.	.
=129	=129	=129	=129
*ped	*	*	*
(>12FF#L\	4cc#)\	4ff#] 4f#]	.
12C#	.	.	.
12A#XJ	.	.	.
4F#)	(>[2.f#	4ryy	.
(>12FF#L\	.	4e	.
12C#	.	.	.
12A#J	.	.	.
4F#)	.	8dL	.
*Xped	*	*	*
.	.	8c#J	.
=130	=130	=130	=130
*^	*	*	*
*ped	*	*	*	*
12ryy	(>12BBL	2f#]	8eL	.
6.D	12D	.	.	.
.	.	.	8d	.
.	12G#J	.	.	.
*Xped	*	*	*	*
!	!	!	!LO:TX:a:t=P:note-head-side tuplet number:problem	!
.	4F#)	.	12d	.
6ryy	.	.	12c#	.
.	.	.	12BJ	.
*ped	*	*	*	*
!	!	!LO:TX:a:t=sempre.	!	!
2ryy	(12CC#L\	2c#	8c#<L/	.
.	12C#	.	.	.
.	.	.	8B<	.
.	12c#J	.	.	.
.	4E#X)	.	12B<	.
*Xped	*	*	*	*
.	.	.	12A#<X	.
.	.	.	12G#<J	.
*	*	*v	*v	*
*v	*v	*	*
=131	=131	=131
*ped	*	*
!	!	!LO:DY:a
(<12FF#L\	4c#) 4F#<	p
12C#	.	.
12A#XJ	.	.
*Xped	*	*
.	16qB#X/LL	.
.	(<16qc#/JJ	.
4F#)	2c#t	.
*ped	*	*
(>12FF#L\	.	.
12C#	.	.
12BJ	.	.
.	16qB#/LL	.
.	16qc#/JJ	.
4E#X)	8bn)	.
*Xped	*	*
.	8r	.
!!LO:LB:g=original
=132	=132	=132
*ped	*	*
(>12FF#L\	(>4a#X	.
12C#	.	.
12A#XJ	.	.
*Xped	*	*
.	16qB#X/LL	.
.	16qc#/JJ	.
4F#)	&(2c#^t	.
*ped	*	*
(>12FF#L\	.	.
12C#	.	.
12BJ	.	.
.	16qB#/LL	.
.	16qc#/JJ	.
4E#X)	8g#&))	.
*Xped	*	*
.	8r	.
=133	=133	=133
*ped	*	*
(>12FF#L\	(>4f#	.
12C#	.	.
12A#XJ	.	.
*Xped	*	*
.	16qB#X/LL	.
.	(<16qc#/JJ	.
4F#)	2c#^t	.
*ped	*	*
(>12FF#L\	.	.
12C#	.	.
12BJ	.	.
.	16qB#/LL	.
.	16qc#JJ/	.
.	16qqc#/	.
4E#X)	8dd#X) 8bn)	.
*Xped	*	*
.	8r	.
=134	=134	=134
*ped	*	*
(>12FF#L\	(>4cc# 4a#X	.
12C#	.	.
12A#XJ	.	.
*Xped	*	*
.	&(16qB#X/LL	.
.	16qc#/JJ	.
4F#)	2c#^t	.
*ped	*	*
(>12FF#L\	.	.
12C#	.	.
12BJ	.	.
.	16qB#/LL	.
.	16qc#JJ/	.
.	16qqc#/	.
4E#X)	8cc# 8b 8g#&))	.
*Xped	*	*
.	8r	.
!!LO:LB:g=original
=135	=135	=135
*ped	*	*
(>12FF#^L\	4cc# 4a#X 4f#	.
12C#	.	.
12A#XJ	.	.
*Xped	*	*
.	16qB#/LL	.
.	16qc#/JJ	.
4F#)	2.c#^tt	<
*ped	*	*
(>12EE#X^L\	.	.
12C#	.	.
12A#J	.	.
4F#)	.	.
*Xped	*	*
.	.	[
=136	=136	=136
*ped	*	*
!	!LO:TX:t=smorz.	!
(>12DD#X^<L\	1c#	.
12C#	.	.
12A#XJ)	.	.
*Xped	*	*
4F#	.	.
*ped	*	*
(>12CC#^<L\	.	.
12C#	.	.
12A#J	.	.
4F#)	.	.
*Xped	*	*
.	(>8qB#X\L	.
.	8qc#\	.
.	8qd#X\	.
.	8qe#X\	.
.	8qf#\	.
.	8qg#\	.
.	8qa#X\	.
.	8qbn\	.
.	8qcc#\	.
.	8qdd\	.
.	8qee\	.
.	8qff#\	.
.	8qgg#\	.
.	8qaa\	.
.	8qbb\	.
.	8qccc#\	.
.	8qddd\	.
.	8qeee\	.
.	8qfff#\	.
.	8qggg#\J	.
=137	=137	=137
*ped	*	*
4FF# 4FFF#	4aaa#X')	.
4r	4r	]
!	!LO:TX:t=Fine	!
2c#:; 2F# 2C# 2FF#	2ff#^<; 2a#X 2f#	.
==	==	==
*-	*-	*-
!!title: @{OTL}; @{OPS} @{ONM} publisher: @{PPR}
!!!RDF**kern: > = above
!!!RDF**kern: < = below
!!!RDF**kern: N = linked
!!!RDF**dynam: < = "cres",  'fontstyle="normal"
!!!RDF**dynam: > = "dim.", 'fontstyle="normal"
!!!ENC: Marta Lawrence
!!!END: 2018-07-04
!!!EED: Tomasz Sierawski
!!!EST: revision finished: 2018-07-25
!!!EED: Mateusz Mrugas
!!!EST: revision finished: 2019-08-08
!!!rism-genre: Nocturne
!!!rism-key: F-sharp minor
!!!rism-opus: op.  48, no 2
!!!rism-title: Nocturne in F-sharp minor op.  48, no 2
!!!rism-permalink:
